X: 0902
T: HIGHLAND MARCH
C: Joseph W. Turner
B: Oliver Ditson "The Boston Collection of Instrumental Music" 1910 p.90 #2
F: http://conquest.imslp.info/files/imglnks/usimg/8/8f/IMSLP175643-PMLP309456-bostoncollection00bost_bw.pdf
%: 2012 John Chambers <jc:trillian.mit.edu>
N: Today known as March of the Diehards.
M: 4/4
L: 1/8
K: F
c2 |\
f>ef>g a2g>f | d<f d<f c<A F<A | B<d B<d c<A F<A | G2G2 G2z2 |\
f>ef>g a2g>f | d<f d<f c<A F<A | B<d B<d c<b g<e | f2f2 f2 :|
|: FG |\
A<F c<A "^>"f2 ed | c<A c<A G2 FG | B<d B<d c<A F<A | G2G>G G2FG |\
A<F c<A f2ed | c<A c<A G2FG | A<c A<c G<B AG | F2F>F F2 :ee

%%sep 1 1 500
%%sep 1 1 500
